assets/svg/1F304.svg

<svg xmlns="http://www.w3.org/2000/svg" viewBox="0 0 64 64" enable-background="new 0 0 64 64"><path fill="#fbb041" d="m63.62 56.68c0 3.77-3.051 6.822-6.816 6.822h-49.608c-3.766 0-6.814-3.053-6.814-6.822v-49.598c0-3.764 3.049-6.817 6.814-6.817h49.607c3.766 0 6.816 3.054 6.816 6.817v49.598"/><path fill="#2bb673" d="m24.948 45.625c-9.928 2.809-19.2 3.115-24.567 2.967v12.03c0 3.768 3.049 3.055 6.814 3.055h49.607c3.766 0 6.816.426 6.816-3.342v-14.715h-38.67"/><path fill="#b66928" d="m13.207 47.791c-5.18.637-9.68.709-12.826.623v10.316h63.24v-10.939h-50.41"/><path fill="#ff0" d="m30.372 17.05c-12.04 0-21.798 9.763-21.798 21.799 0 2.406.405 4.717 1.123 6.881h41.35c.719-2.164 1.128-4.475 1.128-6.881 0-12.04-9.762-21.799-21.802-21.799"/><g fill="#f7ed4c"><path d="m6.43 32.15l-6.04-1.684v4.263l5.363.727c.149-1.115.38-2.228.677-3.306"/><path d="m55.22 38.848c0 1.152-.08 2.303-.23 3.422l7.185.979c.687-.82 1.188-1.795 1.438-2.869v-1.643h-8.393v.111"/><path d="m13.391 20.71l-12.989-13.881c-.003.084-.012.167-.012.252v7.443l10.681 8.681c.711-.881 1.492-1.722 2.32-2.495"/><path d="m9.105 25.986l-8.715-5.302v5.198l7.163 3.104c.442-1.028.966-2.037 1.552-3"/><path d="m5.76 42.29c-.154-1.117-.233-2.266-.233-3.408l-5.137.002v1.459c.209.924.59 1.785 1.129 2.529l4.241-.582"/><path d="m53.16 28.917l10.451-4.564v-5.771l-12.01 7.345c.585.956 1.108 1.964 1.555 2.99"/><path d="m50.28.265l-8.525 16.485c.998.516 1.966 1.108 2.894 1.758l12.837-18.209c-.227-.022-.456-.034-.689-.034h-6.517"/><path d="m49.631 23.15l13.979-11.418v-4.65c0-1.124-.275-2.182-.758-3.117l-15.55 16.699c.829.774 1.61 1.609 2.329 2.486"/><path d="m54.98 35.37l8.629-1.189v-4.72l-9.315 2.624c.304 1.07.532 2.178.686 3.285"/><path d="m38.664 15.413l5.357-15.15h-5.676l-2.92 14.245c1.094.226 2.184.529 3.239.903"/><path d="m25.25 14.525l-2.969-14.26h-5.675l5.416 15.171c1.051-.377 2.135-.683 3.228-.911"/><path d="m30.369 14.01c.582-.021 1.133.018 1.693.055l.908-13.795h-5.315l.95 13.8c.581-.04 1.172-.06 1.764-.06"/><path d="m18.934 16.78l-8.604-16.515h-3.127c-1.262 0-2.44.35-3.454.948l12.287 17.338c.925-.655 1.896-1.25 2.898-1.771"/></g><path fill="#40bf7f" d="m53.29 54.762c-5.04-7.672-12.7-14.471-21.294-14.471-8.593 0-16.259 6.799-21.292 14.471h42.586"/><g fill="#2bb673"><path d="m.381 28.767c1.883-1.571 3.857-2.522 5.905-2.522 9.51 0 17.642 19.72 21.01 33.654h-26.915v-31.13"/><path d="m63.62 39.576c-1.902-1.025-3.9-1.646-5.967-1.646-9.611 0-20.771 16.477-24.16 25.572l19.227.18 10.904-3.783v-20.323"/></g><path fill="#45ce86" d="m51.33 63.5c-5.04-6.303-12.7-11.887-21.294-11.887-8.593 0-16.259 5.584-21.292 11.887h42.586"/></svg>

<?xml version="1.0" encoding="utf-8"?>
<!-- Generator: Adobe Illustrator 16.0.0, SVG Export Plug-In . SVG Version: 6.00 Build 0)  -->
<!DOCTYPE svg PUBLIC "-//W3C//DTD SVG 1.1//EN" "http://www.w3.org/Graphics/SVG/1.1/DTD/svg11.dtd">
<svg version="1.1"
	 id="Layer_1" xmlns:rdf="http://www.w3.org/1999/02/22-rdf-syntax-ns#" xmlns:inkscape="http://www.inkscape.org/namespaces/inkscape" xmlns:svg="http://www.w3.org/2000/svg" xmlns:cc="http://creativecommons.org/ns#" xmlns:sodipodi="http://sodipodi.sourceforge.net/DTD/sodipodi-0.dtd" xmlns:dc="http://purl.org/dc/elements/1.1/" inkscape:export-filename="D:\TESTINGEMOJI\SVGTEST\1F304.png" inkscape:export-ydpi="90" sodipodi:docname="1F304.svg" inkscape:export-xdpi="90" inkscape:version="0.48.5 r10040"
	 xmlns="http://www.w3.org/2000/svg" xmlns:xlink="http://www.w3.org/1999/xlink" x="0px" y="0px" width="64px" height="64px"
	 viewBox="0 0 64 64" enable-background="new 0 0 64 64" xml:space="preserve">
<g>
	<g id="g3511_1_">
		<path id="path3513_1_" fill="#FBB041" d="M63.619,56.68c0,3.77-3.051,6.822-6.816,6.822H7.195c-3.766,0-6.814-3.053-6.814-6.822
			V7.082c0-3.764,3.049-6.817,6.814-6.817h49.607c3.766,0,6.816,3.054,6.816,6.817V56.68z"/>
	</g>
	<path fill="#2BB673" d="M24.948,45.625C15.02,48.434,5.744,48.74,0.381,48.592v12.035c0,3.768,3.049,3.055,6.814,3.055h49.607
		c3.766,0,6.816,0.426,6.816-3.342V45.625H24.948z"/>
	<path fill="#B66928" d="M13.207,47.791c-5.18,0.637-9.68,0.709-12.826,0.623V58.73h63.238V47.791H13.207z"/>
	<g>
		<path fill="#FFFF00" d="M30.372,17.049c-12.044,0-21.798,9.763-21.798,21.799c0,2.406,0.405,4.717,1.123,6.881h41.349
			c0.719-2.164,1.128-4.475,1.128-6.881C52.174,26.811,42.412,17.049,30.372,17.049z"/>
		<path fill="#F7ED4C" d="M6.43,32.147l-6.04-1.684v4.263l5.363,0.727C5.902,34.338,6.133,33.225,6.43,32.147z"/>
		<path fill="#F7ED4C" d="M55.217,38.848c0,1.152-0.08,2.303-0.23,3.422l7.185,0.979c0.687-0.82,1.188-1.795,1.438-2.869v-1.643
			h-8.393V38.848z"/>
		<path fill="#F7ED4C" d="M13.391,20.71L0.402,6.829C0.399,6.913,0.39,6.996,0.39,7.081v7.443l10.681,8.681
			C11.782,22.324,12.563,21.483,13.391,20.71z"/>
		<path fill="#F7ED4C" d="M9.105,25.986L0.39,20.684v5.198l7.163,3.104C7.995,27.958,8.519,26.949,9.105,25.986z"/>
		<path fill="#F7ED4C" d="M5.76,42.293c-0.154-1.117-0.233-2.266-0.233-3.408L0.39,38.887v1.459c0.209,0.924,0.59,1.785,1.129,2.529
			L5.76,42.293z"/>
		<path fill="#F7ED4C" d="M53.158,28.917l10.451-4.564v-5.771l-12.006,7.345C52.188,26.883,52.711,27.891,53.158,28.917z"/>
		<path fill="#F7ED4C" d="M50.278,0.265L41.753,16.75c0.998,0.516,1.966,1.108,2.894,1.758L57.484,0.299
			c-0.227-0.022-0.456-0.034-0.689-0.034H50.278z"/>
		<path fill="#F7ED4C" d="M49.631,23.149l13.979-11.418v-4.65c0-1.124-0.275-2.182-0.758-3.117l-15.55,16.699
			C48.131,21.437,48.912,22.272,49.631,23.149z"/>
		<path fill="#F7ED4C" d="M54.98,35.369l8.629-1.189V29.46l-9.315,2.624C54.598,33.154,54.826,34.262,54.98,35.369z"/>
		<path fill="#F7ED4C" d="M38.664,15.413l5.357-15.148h-5.676l-2.92,14.245C36.519,14.736,37.609,15.039,38.664,15.413z"/>
		<path fill="#F7ED4C" d="M25.245,14.525l-2.969-14.26h-5.675l5.416,15.171C23.068,15.059,24.152,14.753,25.245,14.525z"/>
		<path fill="#F7ED4C" d="M30.369,14.005c0.582-0.021,1.133,0.018,1.693,0.055l0.908-13.795h-5.315l0.95,13.8
			C29.186,14.025,29.777,14.005,30.369,14.005z"/>
		<path fill="#F7ED4C" d="M18.934,16.78L10.33,0.265H7.203c-1.262,0-2.44,0.35-3.454,0.948l12.287,17.338
			C16.961,17.896,17.932,17.301,18.934,16.78z"/>
	</g>
	<g id="g3533_2_">
		<path id="path3535_2_" fill="#40BF7F" d="M53.293,54.762c-5.039-7.672-12.7-14.471-21.294-14.471
			c-8.593,0-16.259,6.799-21.292,14.471H53.293z"/>
	</g>
	<g id="g3529_1_">
		<path id="path3531_1_" fill="#2BB673" d="M0.381,28.767c1.883-1.571,3.857-2.522,5.905-2.522c9.51,0,17.642,19.72,21.01,33.654
			H0.381V28.767z"/>
	</g>
	<g id="g3537_1_">
		<path id="path3539_1_" fill="#2BB673" d="M63.619,39.576c-1.902-1.025-3.9-1.646-5.967-1.646
			c-9.611,0-20.771,16.477-24.164,25.572l19.227,0.18l10.904-3.783V39.576z"/>
	</g>
	<g id="g3533_1_">
		<path id="path3535_1_" fill="#45CE86" d="M51.332,63.502c-5.039-6.303-12.7-11.887-21.294-11.887
			c-8.593,0-16.259,5.584-21.292,11.887H51.332z"/>
	</g>
</g>
<sodipodi:namedview  id="namedview3541" inkscape:cy="32" gridtolerance="10" bordercolor="#666666" inkscape:cx="32" objecttolerance="10" guidetolerance="10" inkscape:zoom="3.6875" showgrid="false" pagecolor="#ffffff" borderopacity="1" inkscape:current-layer="Layer_1" inkscape:window-maximized="0" inkscape:window-y="335" inkscape:window-x="719" inkscape:window-height="480" inkscape:window-width="640" inkscape:pageshadow="2" inkscape:pageopacity="0">
	</sodipodi:namedview>
</svg>
